X: 5972
T: Camptown Races
R: polka
M: 2/4
K: Fmajor
|F>A cc|dc c2|AG2F|AG2F|
F>A cc|dc c2|fd2c|AG2C|

